src/assets/Imgs/person-plus.svg

<svg fill="none" height="16" viewBox="0 0 16 16" width="16" xmlns="http://www.w3.org/2000/svg"><path d="m5.67611 1.95312c-1.65667 0-3 1.34314-3 3.00001 0 1.65686 1.34333 3 3 3 1.65666 0 3-1.34314 3-3 0-1.65687-1.34334-3.00001-3-3.00001zm0 1.33334c.92066 0 1.66666.7462 1.66666 1.66667 0 .92046-.746 1.6666-1.66666 1.66666-.92067 0-1.66667-.7462-1.66667-1.66666 0-.92047.746-1.6666 1.66667-1.66667zm6.99999 2.66667c-.368 0-.6667.29846-.6667.66666v.66667h-.6666c-.368 0-.6667.29847-.6667.66667s.2987.66666.6667.66666h.6666v.66667c0 .3682.2987.66667.6667.66667s.6667-.29847.6667-.66667v-.66667h.6666c.368 0 .6667-.29846.6667-.66666s-.2987-.66667-.6667-.66667h-.6666v-.66667c0-.3682-.2987-.66666-.6667-.66666zm-9.292 2.89586c-1.22266.50454-2.04133 1.74151-2.04133 3.10411v1.3334c0 .3682.29867.6666.66667.6666h7.33333c.368 0 .66663-.2984.66663-.6666v-1.3334c0-1.3305-.82329-2.53751-2.04129-3.06251-.172-.07386-.37134-.07613-.542 0-.59.2644-1.16467.39574-1.75.39587-.58334 0-1.16001-.13867-1.77067-.41667-.168-.0764-.35067-.091-.52134-.0208zm.25068 1.35411c.62933.239 1.39533.4168 2.04133.4167.64066 0 1.36199-.1469 1.97933-.375.60133.3432 1.02067.9746 1.02067 1.7083v.6667h-6v-.6667c0-.7764.43067-1.441.95867-1.75z" fill="#b0b0b0"/></svg>

<svg width="16" height="16" viewBox="0 0 16 16" fill="none" xmlns="http://www.w3.org/2000/svg">
<g id="person-plus">
<path id="Vector" d="M5.67611 1.95312C4.01944 1.95312 2.67611 3.29626 2.67611 4.95313C2.67611 6.60999 4.01944 7.95313 5.67611 7.95313C7.33277 7.95313 8.67611 6.60999 8.67611 4.95313C8.67611 3.29626 7.33277 1.95312 5.67611 1.95312ZM5.67611 3.28646C6.59677 3.28646 7.34277 4.03266 7.34277 4.95313C7.34277 5.87359 6.59677 6.61973 5.67611 6.61979C4.75544 6.61979 4.00944 5.87359 4.00944 4.95313C4.00944 4.03266 4.75544 3.28653 5.67611 3.28646ZM12.6761 5.95313C12.3081 5.95313 12.0094 6.25159 12.0094 6.61979V7.28646H11.3428C10.9748 7.28646 10.6761 7.58493 10.6761 7.95313C10.6761 8.32133 10.9748 8.61979 11.3428 8.61979H12.0094V9.28646C12.0094 9.65466 12.3081 9.95313 12.6761 9.95313C13.0441 9.95313 13.3428 9.65466 13.3428 9.28646V8.61979H14.0094C14.3774 8.61979 14.6761 8.32133 14.6761 7.95313C14.6761 7.58493 14.3774 7.28646 14.0094 7.28646H13.3428V6.61979C13.3428 6.25159 13.0441 5.95313 12.6761 5.95313ZM3.3841 8.84899C2.16144 9.35353 1.34277 10.5905 1.34277 11.9531V13.2865C1.34277 13.6547 1.64144 13.9531 2.00944 13.9531H9.34277C9.71077 13.9531 10.0094 13.6547 10.0094 13.2865V11.9531C10.0094 10.6226 9.18611 9.41559 7.96811 8.89059C7.79611 8.81673 7.59677 8.81446 7.42611 8.89059C6.83611 9.15499 6.26144 9.28633 5.67611 9.28646C5.09277 9.28646 4.5161 9.14779 3.90544 8.86979C3.73744 8.79339 3.55477 8.77879 3.3841 8.84899ZM3.63478 10.2031C4.26411 10.4421 5.03011 10.6199 5.67611 10.6198C6.31677 10.6198 7.0381 10.4729 7.65544 10.2448C8.25677 10.588 8.67611 11.2194 8.67611 11.9531V12.6198H2.67611V11.9531C2.67611 11.1767 3.10678 10.5121 3.63478 10.2031Z" fill="#B0B0B0"/>
</g>
</svg>
